src/static/logos/graphene.svg

<?xml version="1.0" encoding="UTF-8" standalone="no"?>
<svg width="256px" height="290px" viewBox="0 0 256 290" version="1.1" xmlns="http://www.w3.org/2000/svg" xmlns:xlink="http://www.w3.org/1999/xlink" preserveAspectRatio="xMidYMid">
    <g>
        <path d="M152.911887,137.677944 L215.813798,102.279174 C217.907752,104.113911 220.318372,105.593188 222.952446,106.623368 L222.996589,182.989413 C213.927444,186.51572 207.496024,195.36189 207.496024,205.717015 C207.496024,207.50489 207.687745,209.247782 208.051662,210.926079 L145.068321,246.71958 C140.83487,243.096056 135.345696,240.908991 129.348012,240.908991 C123.182594,240.908991 117.554525,243.220096 113.275481,247.026947 L48.2410826,209.316648 C48.4142615,208.142005 48.5039761,206.940035 48.5039761,205.717015 C48.5039761,194.408158 40.8333004,184.899012 30.4333779,182.153428 L30.3230756,107.505405 C40.7790177,104.798134 48.5039761,95.2617801 48.5039761,83.9129791 C48.5039761,81.8071532 48.2380009,79.7637309 47.7379559,77.8147625 L110.002234,42.0757492 C114.346031,46.1972441 120.205258,48.7240597 126.651988,48.7240597 C140.045991,48.7240597 150.903976,37.8168074 150.903976,24.3620299 C150.903976,10.9072523 140.045991,-7.10542736e-15 126.651988,-7.10542736e-15 C113.257985,-7.10542736e-15 102.4,10.9072523 102.4,24.3620299 C102.4,25.8243918 102.528264,27.2566601 102.774108,28.6481016 L39.4994644,64.9670536 C35.3338188,61.5798797 30.0287742,59.5509493 24.2519881,59.5509493 C10.8579849,59.5509493 1.0658141e-14,70.4582015 1.0658141e-14,83.9129791 C1.0658141e-14,94.1064171 6.23214515,102.837655 15.0776865,106.471524 L15.1909333,183.112283 C6.28538379,186.717937 1.0658141e-14,195.48013 1.0658141e-14,205.717015 C1.0658141e-14,219.171792 10.8579849,230.079045 24.2519881,230.079045 C30.940044,230.079045 36.9957879,227.359512 41.3831372,222.961229 L105.620212,260.209199 C105.276708,261.842117 105.096024,263.535373 105.096024,265.271021 C105.096024,278.725798 115.954009,289.633051 129.348012,289.633051 C142.742015,289.633051 153.6,278.725798 153.6,265.271021 C153.6,263.375247 153.384439,261.530048 152.976597,259.758809 L215.789691,224.062059 C220.054433,227.808767 225.637294,230.079045 231.748012,230.079045 C245.142015,230.079045 256,219.171792 256,205.717015 C256,194.521037 248.48169,185.089022 238.240001,182.23766 L238.196745,107.404333 C248.460513,104.567516 256,95.1247133 256,83.9129791 C256,70.4582015 245.142015,59.5509493 231.748012,59.5509493 C218.354009,59.5509493 207.496024,70.4582015 207.496024,83.9129791 C207.496024,85.7114298 207.69002,87.4643646 208.058138,89.1518191 L144.846494,124.724896 C140.643946,121.213615 135.241474,119.101899 129.348012,119.101899 C115.954009,119.101899 105.096024,130.009151 105.096024,143.463928 C105.096024,156.918706 115.954009,167.825958 129.348012,167.825958 C142.742015,167.825958 153.6,156.918706 153.6,143.463928 C153.6,141.470269 153.361604,139.532542 152.911887,137.677944 Z" fill="#E05F47"></path>
    </g>
</svg>

<svg width="256" height="290" xmlns="http://www.w3.org/2000/svg" preserveAspectRatio="xMidYMid"><path d="M152.912 137.678l62.902-35.399a24.226 24.226 0 007.138 4.344l.045 76.366a24.368 24.368 0 00-15.501 22.728c0 1.788.192 3.53.556 5.21l-62.984 35.793a24.092 24.092 0 00-15.72-5.811 24.098 24.098 0 00-16.073 6.118l-65.034-37.71a24.67 24.67 0 00.263-3.6c0-11.309-7.67-20.818-18.07-23.564l-.11-74.648c10.455-2.707 18.18-12.243 18.18-23.592 0-2.106-.266-4.15-.766-6.098l62.264-35.74c4.344 4.122 10.203 6.65 16.65 6.65 13.394 0 24.252-10.908 24.252-24.363S140.046 0 126.652 0C113.258 0 102.4 10.907 102.4 24.362c0 1.462.128 2.895.374 4.286L39.5 64.968a24.083 24.083 0 00-15.247-5.417C10.858 59.55 0 70.458 0 83.913a24.37 24.37 0 0015.078 22.559l.113 76.64A24.37 24.37 0 000 205.717c0 13.455 10.858 24.362 24.252 24.362 6.688 0 12.744-2.72 17.131-7.118l64.237 37.248a24.57 24.57 0 00-.524 5.062c0 13.455 10.858 24.362 24.252 24.362 13.394 0 24.252-10.907 24.252-24.362 0-1.896-.216-3.741-.623-5.512l62.813-35.697a24.096 24.096 0 0015.958 6.017c13.394 0 24.252-10.907 24.252-24.362 0-11.196-7.518-20.628-17.76-23.48l-.043-74.833C248.46 104.568 256 95.124 256 83.913c0-13.455-10.858-24.362-24.252-24.362-13.394 0-24.252 10.907-24.252 24.362 0 1.798.194 3.551.562 5.239l-63.212 35.573a24.088 24.088 0 00-15.498-5.623c-13.394 0-24.252 10.907-24.252 24.362 0 13.455 10.858 24.362 24.252 24.362 13.394 0 24.252-10.907 24.252-24.362 0-1.994-.238-3.931-.688-5.786z" fill="#E05F47"/></svg>
